X:1030
T:The Lass amongst the Actenoch.
M:C|
L:1/8
Q:1/2=104
I: :: ::
Z:Jack Campin * www.campin.me.uk * 2009
K:A Minor
E|GG`c>G A2 A>d|c>Gc>G AGE2|DD`E>G A/A/A A2|c>de>d cAA:|
a|g<ee>a g>ed<e|c>Gc>B AGE2|D<DE>G A/A/A A2|c>de>d cAA:|

